public/illustrations/_robot.svg

<svg width="289" height="310" viewBox="0 0 289 310" fill="none" xmlns="http://www.w3.org/2000/svg">
<path d="M30.2353 104.106C30.023 97.9756 30.023 92.2555 29.8672 86.408C29.8389 83.4064 29.6832 80.4191 29.8248 77.5449C30.0088 73.0849 31.6937 70.9611 36.3377 70.4089C39.4243 69.9417 42.4259 69.9274 45.5833 70.0124C66.8354 70.3947 87.9177 70.6495 109.028 71.046C110.756 71.0743 112.596 70.9327 114.748 71.046C115.456 67.209 116.051 63.5419 116.787 59.8606C117.368 57.0572 117.807 54.268 118.401 51.5921C119.449 47.1321 121.502 45.5464 126.132 45.8438C132.178 46.0844 138.11 46.4666 144.467 46.8064C144.793 45.1782 145.147 43.6916 145.487 42.2191C147.398 30.1843 149.31 18.1636 151.363 6.11464C151.419 5.53414 151.589 4.79792 151.787 4.1891C152.764 1.17331 155.101 -0.454931 157.904 0.111413C159.249 0.479537 160.353 1.17325 161.104 2.34841C161.854 3.52357 162.208 4.89696 161.84 6.24202C161.486 9.58345 160.693 12.8542 160.169 16.0824C158.428 26.3615 156.8 36.499 154.973 47.2171L165.394 47.9392C168.721 48.1516 172.048 48.3639 175.376 48.5904C180.586 48.9444 181.931 50.3177 182.88 55.6272L185.386 72.2919L204.047 72.6317C219.409 72.9007 234.771 73.1556 250.275 73.3963C255.443 73.4813 256.774 75.7042 255.981 80.8438C255.627 84.1852 255.698 87.47 255.896 90.7406C255.854 95.1864 255.938 99.604 255.981 104.616L266.798 105.14C271.98 105.367 277.007 105.466 282.245 105.961C286.592 106.315 288.263 107.915 288.475 112.177C288.716 120.445 288.702 128.898 288.659 137.209C288.73 151.948 288.659 166.701 288.603 181.469C288.546 186.778 287.13 188.846 281.778 189.369C274.741 190.148 267.676 190.785 260.611 191.408L256.788 191.691C256.717 195.996 256.746 200.003 256.788 204.009C256.859 210.154 257.199 216.257 257.269 222.401C257.354 225.828 254.693 228.093 250.941 227.937C245.475 227.753 239.883 227.739 234.134 227.612C233.455 238.316 232.874 248.708 232.209 259.539L243.125 259.752L244.243 259.582C250.53 259.497 252.725 261.734 252.696 268.19C252.696 271.914 252.399 275.68 252.215 279.291C251.889 286.639 251.45 294.157 250.983 301.52C250.572 307.31 248.604 309.463 242.856 309.335C229.66 309.179 216.464 309.01 203.268 308.854L152.764 308.16C135.986 307.962 119.067 307.792 102.275 307.608C83.7692 307.381 65.2639 307.169 46.8859 306.787C44.1675 306.772 41.4349 306.744 38.8297 306.574C33.3219 306.121 30.5468 302.95 30.7309 297.484C31.2547 287.673 31.4813 277.762 32.1467 267.921C32.3874 265.741 33.0954 263.773 34.1006 261.904C34.7519 260.516 35.8564 259.341 37.343 258.69C38.6739 258.053 40.3588 257.812 41.8171 258.01C47.3248 258.463 52.8184 258.789 58.8925 259.157C58.7792 248.864 58.6942 238.854 58.4394 228.589C54.4183 228.475 50.5247 228.348 46.7585 228.051C43.856 227.767 40.9109 227.215 38.0792 226.493C34.6528 225.573 33.152 223.223 33.0387 219.669C32.8688 213.821 32.6848 207.832 32.529 201.985C32.3591 200.866 32.4724 199.705 32.4157 198.417L13.9953 193.036C11.8857 192.357 9.80443 191.805 7.69479 191.125C3.31976 189.638 2.10208 188.251 1.98881 183.678C1.60652 173.568 1.23844 163.459 0.969425 153.194C0.6013 141.216 0.360541 129.224 0.0207332 117.401C-0.205805 111.129 1.3658 109.175 7.62393 107.958C15.0006 106.556 22.2215 105.041 30.0229 103.582L30.2495 104.12L30.2353 104.106ZM245.475 83.4205L39.8066 80.1783C41.0384 126.378 42.2277 172.308 43.502 218.791L246.679 217.828C246.197 172.804 245.815 128.473 245.334 83.4347H245.475V83.4205ZM42.4967 268.204C41.987 278.158 41.7038 287.658 41.18 297.47L241.114 299.707C241.638 289.895 242.063 280.381 242.601 270.555C240.874 270.526 239.415 270.314 237.83 270.272C220.669 270.427 203.396 270.739 186.207 270.739C161.883 270.824 137.431 271.064 113.078 271.022C96.8802 270.88 80.7534 270.3 64.4851 269.748C57.4341 269.521 50.1566 268.757 42.4684 268.049V268.19L42.4967 268.204ZM224.039 228.122L68.8035 228.886C68.9876 239.604 69.2707 250.011 69.4973 260.134C80.5694 262.329 214.156 260.389 222.071 259.78C222.652 249.388 223.26 239.123 223.912 228.291L224.025 228.136L224.039 228.122ZM278.295 179.572C278.238 158.249 278.21 137.195 278.309 115.999L255.981 115.065C256.236 137.648 256.377 159.537 256.576 181.695L278.309 179.572H278.295ZM32.3166 188.279C32.3874 160.203 30.8584 117.769 29.5558 114.81L10.3566 118.562C11.0221 140.083 11.6167 161.18 12.2255 182.29L32.1751 188.308H32.3166V188.279ZM172.884 58.7139L127.973 56.1794C127.052 61.4747 126.189 66.1897 125.098 71.3576L174.909 72.1645L172.884 58.728V58.7139Z" fill="#102185"/>
<path d="M105.177 183.309L174.469 184.187C175.092 181.653 175.574 179.147 176.069 176.782C176.324 175.593 176.593 174.559 176.848 173.37C177.244 172.166 177.938 171.062 179.113 170.312C180.147 169.59 181.548 169.377 182.738 169.618C184.055 169.844 185.046 170.708 185.782 171.742C186.518 172.775 186.716 174.177 186.348 175.522C185.64 180.35 184.635 185.093 183.488 189.836C182.568 193.263 180.487 194.58 176.451 194.48C169.726 194.48 163.114 194.339 156.502 194.197L105.715 193.546C104.299 193.617 102.855 193.546 101.524 193.319C100.377 193.348 99.1593 192.824 98.3239 192.088C97.3611 191.38 96.7665 190.318 96.5966 189.199C95.4356 183.366 94.1472 177.688 93.1136 171.827C93.0145 171.133 92.9013 170.425 92.9579 169.844C93.1278 169.108 93.3259 168.499 93.6798 168.018C94.0196 167.395 94.5153 166.885 95.1949 166.645C95.8462 166.262 96.3983 166.036 97.0921 165.923C97.7859 165.809 98.4939 165.71 99.0885 165.908C99.8248 166.078 100.434 166.276 100.943 166.772C101.425 167.126 101.949 167.763 102.317 168.287C102.685 168.811 102.925 169.491 102.897 170.198C103.803 174.361 104.157 178.595 104.879 183.366L105.163 183.323L105.177 183.309Z" fill="#102185"/>
<path d="M140.05 164.889L133.607 165.866C127.732 166.758 125.452 164.946 125.126 158.985C124.815 154.015 124.772 149.018 124.588 144.034C124.433 136.331 124.277 128.615 123.965 120.927C123.909 115.787 125.99 113.465 131.016 113.564C136.043 113.664 141.225 113.89 146.435 114.244C150.923 114.57 152.764 116.297 152.991 120.7C153.302 129.394 153.33 138.115 153.345 146.851C153.387 149.994 153.415 152.996 153.458 156.139C153.543 161.42 151.83 163.403 146.789 164.153L140.347 165.13L140.021 164.889H140.05ZM134.174 123.957C134.5 134.646 134.896 144.897 135.179 155.304L142.881 154.143C142.81 144.133 143.165 134.193 142.513 124.127L134.188 123.957H134.174Z" fill="#102185"/>
<path d="M95.0537 112.389C95.7475 112.29 96.3279 112.333 96.9368 112.531C97.5456 112.729 98.1402 112.927 98.6499 113.423C99.1313 113.777 99.6412 114.272 99.8677 114.81C100.236 115.334 100.335 116.028 100.42 116.594C100.604 117.854 100.094 119.214 99.3862 120.191C98.5367 121.182 97.5032 121.904 96.2572 122.244C94.9971 122.428 93.6519 122.059 92.6608 121.21C91.6697 120.36 90.9477 119.327 90.7495 118.067C90.5512 116.807 90.9335 115.462 91.783 114.47C92.6325 113.479 93.6661 112.757 94.9262 112.559L95.0396 112.403L95.0537 112.389Z" fill="#102185"/>
<path d="M188.543 119.922C188.727 121.182 188.345 122.386 187.623 123.348C186.915 124.311 185.867 125.047 184.607 125.231C183.347 125.415 182.002 125.047 181.039 124.339C180.048 123.49 179.326 122.456 178.986 121.21C178.802 119.95 179.17 118.605 180.02 117.614C180.869 116.623 181.903 115.901 183.191 115.844C184.451 115.66 185.796 116.028 186.787 116.878C187.779 117.727 188.501 118.761 188.557 120.049V119.908L188.543 119.922Z" fill="#102185"/>
</svg>

<svg xmlns="http://www.w3.org/2000/svg" width="289" height="310" fill="none" viewBox="0 0 289 310"><path fill="#102185" d="M30.235 104.106c-.212-6.13-.212-11.85-.368-17.698-.028-3.002-.184-5.989-.042-8.863.184-4.46 1.869-6.584 6.513-7.136 3.086-.467 6.088-.482 9.245-.397 21.252.383 42.335.638 63.445 1.034 1.728.028 3.568-.113 5.72 0 .708-3.837 1.303-7.504 2.039-11.185.581-2.804 1.02-5.593 1.614-8.269 1.048-4.46 3.101-6.046 7.731-5.748 6.046.24 11.978.623 18.335.962.326-1.628.68-3.114 1.02-4.587 1.911-12.035 3.823-24.055 5.876-36.104.056-.58.226-1.317.424-1.926.977-3.016 3.314-4.644 6.117-4.078 1.345.369 2.449 1.062 3.2 2.237.75 1.176 1.104 2.549.736 3.894-.354 3.341-1.147 6.612-1.671 9.84-1.741 10.28-3.369 20.417-5.196 31.135l10.421.722c3.327.213 6.654.425 9.982.651 5.21.354 6.555 1.728 7.504 7.037l2.506 16.665 18.661.34c15.362.269 30.724.524 46.228.764 5.168.085 6.499 2.308 5.706 7.448-.354 3.341-.283 6.626-.085 9.897-.042 4.445.042 8.863.085 13.875l10.817.524c5.182.227 10.209.326 15.447.821 4.347.354 6.018 1.954 6.23 6.216.241 8.268.227 16.721.184 25.032.071 14.739 0 29.492-.056 44.26-.057 5.309-1.473 7.377-6.825 7.9-7.037.779-14.102 1.416-21.167 2.039l-3.823.283c-.071 4.305-.042 8.312 0 12.318.071 6.145.411 12.248.481 18.392.085 3.427-2.576 5.692-6.328 5.536-5.466-.184-11.058-.198-16.807-.325-.679 10.704-1.26 21.096-1.925 31.927l10.916.213 1.118-.17c6.287-.085 8.482 2.152 8.453 8.608 0 3.724-.297 7.49-.481 11.101-.326 7.348-.765 14.866-1.232 22.229-.411 5.79-2.379 7.943-8.127 7.815-13.196-.156-26.392-.325-39.588-.481l-50.504-.694c-16.778-.198-33.697-.368-50.489-.552-18.506-.227-37.011-.439-55.39-.821-2.718-.015-5.45-.043-8.055-.213-5.508-.453-8.283-3.624-8.1-9.09.525-9.811.751-19.722 1.417-29.563.24-2.18.948-4.148 1.954-6.017.65-1.388 1.755-2.563 3.242-3.214 1.33-.637 3.016-.878 4.474-.68 5.508.453 11.001.779 17.075 1.147-.113-10.293-.198-20.303-.453-30.568-4.02-.114-7.914-.241-11.68-.538-2.903-.284-5.848-.836-8.68-1.558-3.426-.92-4.927-3.27-5.04-6.824-.17-5.848-.354-11.837-.51-17.684-.17-1.119-.057-2.28-.113-3.568l-18.42-5.381c-2.11-.679-4.192-1.231-6.301-1.911-4.375-1.487-5.593-2.874-5.706-7.447-.382-10.11-.75-20.219-1.02-30.484-.368-11.978-.608-23.97-.948-35.793-.227-6.272 1.345-8.226 7.603-9.443 7.377-1.402 14.598-2.917 22.399-4.376l.227.538zm215.24-20.685L39.807 80.178c1.231 46.2 2.42 92.13 3.695 138.613l203.177-.963c-.482-45.024-.864-89.355-1.345-134.393h.141zM42.497 268.203c-.51 9.954-.793 19.454-1.317 29.266l199.934 2.237c.524-9.812.949-19.326 1.487-29.152-1.727-.029-3.186-.241-4.771-.283-17.161.155-34.434.467-51.623.467-24.324.085-48.776.325-73.129.283-16.198-.142-32.325-.722-48.593-1.274-7.05-.227-14.328-.991-22.017-1.699v.141zm181.542-40.082-155.235.764c.184 10.718.467 21.125.693 31.248 11.072 2.195 144.659.255 152.574-.354a7337 7337 0 0 1 1.841-31.489l.113-.155zm54.256-48.55c-.057-21.323-.085-42.377.014-63.573l-22.328-.934c.255 22.583.396 44.472.595 66.63l21.733-2.123zm-245.978 8.707c.07-28.076-1.459-70.51-2.761-73.469l-19.2 3.752c.666 21.521 1.26 42.618 1.87 63.728l19.95 6.018h.14zM172.884 58.714l-44.911-2.535c-.921 5.296-1.784 10.01-2.875 15.179l49.811.806-2.025-13.436z"/><path fill="#102185" d="m105.177 183.309 69.292.878c.623-2.534 1.105-5.04 1.6-7.405.255-1.189.524-2.223.779-3.412.396-1.204 1.09-2.308 2.265-3.058 1.034-.722 2.435-.935 3.625-.694 1.317.226 2.308 1.09 3.044 2.124.736 1.033.934 2.435.566 3.78-.708 4.828-1.713 9.571-2.86 14.314-.92 3.427-3.001 4.744-7.037 4.644-6.725 0-13.337-.141-19.949-.283l-50.787-.651c-1.416.071-2.86 0-4.191-.227-1.147.029-2.365-.495-3.2-1.231a4.4 4.4 0 0 1-1.727-2.889c-1.161-5.833-2.45-11.511-3.483-17.372-.1-.694-.213-1.402-.156-1.983.17-.736.368-1.345.722-1.826.34-.623.835-1.133 1.515-1.373.651-.383 1.203-.609 1.897-.722.694-.114 1.402-.213 1.996-.015.737.17 1.346.368 1.855.864.482.354 1.006.991 1.374 1.515s.608 1.204.58 1.911c.906 4.163 1.26 8.397 1.982 13.168l.284-.043zM140.05 164.889l-6.443.977c-5.875.892-8.155-.92-8.481-6.881-.311-4.97-.354-9.967-.538-14.951-.155-7.703-.311-15.419-.623-23.107-.056-5.14 2.025-7.462 7.051-7.363 5.027.1 10.209.326 15.419.68 4.488.326 6.329 2.053 6.556 6.456.311 8.694.339 17.415.354 26.151.042 3.143.07 6.145.113 9.288.085 5.281-1.628 7.264-6.669 8.014l-6.442.977-.326-.241zm-5.876-40.932c.326 10.689.722 20.94 1.005 31.347l7.702-1.161c-.071-10.01.284-19.95-.368-30.016l-8.325-.17zM95.054 112.389c.694-.099 1.274-.056 1.883.142s1.203.396 1.713.892c.481.354.991.849 1.218 1.387.368.524.467 1.218.552 1.784.184 1.26-.326 2.62-1.034 3.597-.85.991-1.883 1.713-3.129 2.053a4.57 4.57 0 0 1-3.596-1.034c-.991-.85-1.713-1.883-1.912-3.143a4.52 4.52 0 0 1 1.034-3.597c.85-.991 1.883-1.713 3.143-1.911l.114-.156zM188.543 119.922c.184 1.26-.198 2.464-.92 3.426-.708.963-1.756 1.699-3.016 1.883s-2.605-.184-3.568-.892c-.991-.849-1.713-1.883-2.053-3.129a4.57 4.57 0 0 1 1.034-3.596c.849-.991 1.883-1.713 3.171-1.77a4.57 4.57 0 0 1 3.596 1.034c.992.849 1.714 1.883 1.77 3.171v-.141z"/></svg>
